components/Common/Svg/svgs/titledJava.svg

<svg
  width="96"
  height="137"
  viewBox="0 0 96 137"
  fill="none"
  xmlns="http://www.w3.org/2000/svg"
>
  <path
    d="M33.488 114.31V123.742C33.488 124.786 33.188 125.614 32.588 126.226C32 126.826 31.172 127.126 30.104 127.126C28.952 127.126 28.046 126.79 27.386 126.118C26.738 125.434 26.414 124.48 26.414 123.256H28.052C28.052 123.988 28.214 124.57 28.538 125.002C28.862 125.422 29.36 125.632 30.032 125.632C30.668 125.632 31.13 125.452 31.418 125.092C31.706 124.732 31.85 124.282 31.85 123.742V114.31H33.488ZM40.0828 116.992C41.0428 116.992 41.8528 117.232 42.5128 117.712C43.1848 118.192 43.6528 118.834 43.9168 119.638V117.118H45.5548V127H43.9168V124.48C43.6528 125.284 43.1848 125.926 42.5128 126.406C41.8528 126.886 41.0428 127.126 40.0828 127.126C39.2068 127.126 38.4268 126.922 37.7428 126.514C37.0588 126.106 36.5188 125.524 36.1228 124.768C35.7388 124 35.5468 123.1 35.5468 122.068C35.5468 121.036 35.7388 120.136 36.1228 119.368C36.5188 118.6 37.0588 118.012 37.7428 117.604C38.4268 117.196 39.2068 116.992 40.0828 116.992ZM40.5508 118.45C39.5428 118.45 38.7328 118.774 38.1208 119.422C37.5208 120.058 37.2208 120.94 37.2208 122.068C37.2208 123.196 37.5208 124.084 38.1208 124.732C38.7328 125.368 39.5428 125.686 40.5508 125.686C41.1988 125.686 41.7748 125.536 42.2788 125.236C42.7948 124.936 43.1968 124.516 43.4848 123.976C43.7728 123.424 43.9168 122.788 43.9168 122.068C43.9168 121.348 43.7728 120.712 43.4848 120.16C43.1968 119.608 42.7948 119.188 42.2788 118.9C41.7748 118.6 41.1988 118.45 40.5508 118.45ZM51.9957 125.254L55.0557 117.118H56.8197L52.9497 127H51.0057L47.1357 117.118H48.8997L51.9957 125.254ZM62.4773 116.992C63.4373 116.992 64.2473 117.232 64.9073 117.712C65.5793 118.192 66.0473 118.834 66.3113 119.638V117.118H67.9493V127H66.3113V124.48C66.0473 125.284 65.5793 125.926 64.9073 126.406C64.2473 126.886 63.4373 127.126 62.4773 127.126C61.6013 127.126 60.8213 126.922 60.1373 126.514C59.4533 126.106 58.9133 125.524 58.5173 124.768C58.1333 124 57.9413 123.1 57.9413 122.068C57.9413 121.036 58.1333 120.136 58.5173 119.368C58.9133 118.6 59.4533 118.012 60.1373 117.604C60.8213 117.196 61.6013 116.992 62.4773 116.992ZM62.9453 118.45C61.9373 118.45 61.1273 118.774 60.5153 119.422C59.9153 120.058 59.6153 120.94 59.6153 122.068C59.6153 123.196 59.9153 124.084 60.5153 124.732C61.1273 125.368 61.9373 125.686 62.9453 125.686C63.5933 125.686 64.1693 125.536 64.6733 125.236C65.1893 124.936 65.5913 124.516 65.8793 123.976C66.1673 123.424 66.3113 122.788 66.3113 122.068C66.3113 121.348 66.1673 120.712 65.8793 120.16C65.5913 119.608 65.1893 119.188 64.6733 118.9C64.1693 118.6 63.5933 118.45 62.9453 118.45Z"
    fill="#A0A0A0"
  ></path>
  <path
    d="M37.9194 67.9501C37.9194 67.9501 35.0365 69.644 39.971 70.2173C45.949 70.9064 49.0043 70.8075 55.5921 69.5477C55.5921 69.5477 57.3241 70.645 59.7429 71.5954C44.9748 77.9908 26.3198 71.225 37.9194 67.9501Z"
    fill="#9B9B9B"
  ></path>
  <path
    d="M36.111 59.6045C36.111 59.6045 32.8776 62.0229 37.8158 62.539C44.2016 63.2047 49.2447 63.2591 57.9712 61.5612C57.9712 61.5612 59.1782 62.7977 61.0761 63.4738C43.2206 68.7495 23.3327 63.8899 36.111 59.6045Z"
    fill="#9B9B9B"
  ></path>
  <path
    d="M51.3259 45.4475C54.9647 49.6807 50.3698 53.4901 50.3698 53.4901C50.3698 53.4901 59.6095 48.6705 55.3661 42.6353C51.4029 37.0071 48.3637 34.2106 64.8168 24.5688C64.8168 24.5688 38.9909 31.0863 51.3259 45.4475Z"
    fill="#6A6A6A"
  ></path>
  <path
    d="M70.8595 74.123C70.8595 74.123 72.9929 75.8991 68.51 77.2732C59.9856 79.8825 33.0308 80.6704 25.5428 77.3772C22.8511 76.194 27.8988 74.552 29.4867 74.2074C31.1426 73.8446 32.0889 73.9122 32.0889 73.9122C29.0955 71.7814 12.7403 78.0961 23.7813 79.9045C53.8918 84.8385 78.6697 77.6827 70.8595 74.123Z"
    fill="#9B9B9B"
  ></path>
  <path
    d="M39.3015 50.9575C39.3015 50.9575 25.5905 54.248 34.4461 55.443C38.1852 55.9488 45.639 55.8343 52.582 55.2465C58.2562 54.7629 63.9538 53.7346 63.9538 53.7346C63.9538 53.7346 61.953 54.6004 60.5055 55.5991C46.5822 59.2991 19.6851 57.5778 27.4284 53.7932C33.977 50.5946 39.3015 50.9575 39.3015 50.9575Z"
    fill="#9B9B9B"
  ></path>
  <path
    d="M63.9017 64.8491C78.0553 57.4176 71.5112 50.276 66.9435 51.2382C65.824 51.4736 65.3248 51.6776 65.3248 51.6776C65.3248 51.6776 65.7404 51.0198 66.5342 50.735C75.5705 47.525 82.5201 60.2025 63.6172 65.2236C63.6172 65.2239 63.8362 65.026 63.9017 64.8491Z"
    fill="#9B9B9B"
  ></path>
  <path
    d="M55.3643 9C55.3643 9 63.2028 16.9229 47.9298 29.1062C35.6824 38.8793 45.137 44.4516 47.9247 50.8182C40.7757 44.3008 35.5293 38.5635 39.049 33.2237C44.2151 25.3854 58.5269 21.5851 55.3643 9Z"
    fill="#6A6A6A"
  ></path>
  <path
    d="M40.6928 84.9868C54.2785 85.8655 75.1409 84.4992 75.635 78.0038C75.635 78.0038 74.6852 80.4661 64.4071 82.4217C52.8114 84.6266 38.5098 84.3692 30.0273 82.956C30.0275 82.9558 31.7638 84.4082 40.6928 84.9868Z"
    fill="#9B9B9B"
  ></path>
</svg>

<svg width="96" height="137" viewBox="0 0 96 137" fill="none" xmlns="http://www.w3.org/2000/svg"><path d="M33.488 114.31v9.432c0 1.044-.3 1.872-.9 2.484-.588.6-1.416.9-2.484.9-1.152 0-2.058-.336-2.718-1.008-.648-.684-.972-1.638-.972-2.862h1.638c0 .732.162 1.314.486 1.746.324.42.822.63 1.494.63.636 0 1.098-.18 1.386-.54.288-.36.432-.81.432-1.35v-9.432h1.638Zm6.595 2.682c.96 0 1.77.24 2.43.72a3.735 3.735 0 0 1 1.404 1.926v-2.52h1.638V127h-1.638v-2.52a3.735 3.735 0 0 1-1.404 1.926c-.66.48-1.47.72-2.43.72-.876 0-1.656-.204-2.34-.612-.684-.408-1.224-.99-1.62-1.746-.384-.768-.576-1.668-.576-2.7 0-1.032.192-1.932.576-2.7.396-.768.936-1.356 1.62-1.764.684-.408 1.464-.612 2.34-.612Zm.468 1.458c-1.008 0-1.818.324-2.43.972-.6.636-.9 1.518-.9 2.646s.3 2.016.9 2.664c.612.636 1.422.954 2.43.954.648 0 1.224-.15 1.728-.45.516-.3.918-.72 1.206-1.26.288-.552.432-1.188.432-1.908s-.144-1.356-.432-1.908a2.985 2.985 0 0 0-1.206-1.26c-.504-.3-1.08-.45-1.728-.45Zm11.445 6.804 3.06-8.136h1.764L52.95 127h-1.944l-3.87-9.882H48.9l3.096 8.136Zm10.481-8.262c.96 0 1.77.24 2.43.72a3.735 3.735 0 0 1 1.404 1.926v-2.52h1.638V127h-1.638v-2.52a3.735 3.735 0 0 1-1.404 1.926c-.66.48-1.47.72-2.43.72-.876 0-1.656-.204-2.34-.612-.684-.408-1.224-.99-1.62-1.746-.384-.768-.576-1.668-.576-2.7 0-1.032.192-1.932.576-2.7.396-.768.936-1.356 1.62-1.764.684-.408 1.464-.612 2.34-.612Zm.468 1.458c-1.008 0-1.818.324-2.43.972-.6.636-.9 1.518-.9 2.646s.3 2.016.9 2.664c.612.636 1.422.954 2.43.954.648 0 1.224-.15 1.728-.45.516-.3.918-.72 1.206-1.26.288-.552.432-1.188.432-1.908s-.144-1.356-.432-1.908a2.985 2.985 0 0 0-1.206-1.26c-.504-.3-1.08-.45-1.728-.45Z" fill="#A0A0A0"/><path d="M37.92 67.95s-2.884 1.694 2.051 2.267c5.978.69 9.033.59 15.621-.67 0 0 1.732 1.098 4.15 2.048-14.767 6.396-33.422-.37-21.823-3.645ZM36.111 59.605s-3.233 2.418 1.705 2.934c6.386.666 11.429.72 20.155-.978 0 0 1.207 1.237 3.105 1.913-17.855 5.276-37.743.416-24.965-3.87Z" fill="#9B9B9B"/><path d="M51.326 45.447c3.639 4.234-.956 8.043-.956 8.043s9.24-4.82 4.996-10.855c-3.963-5.628-7.002-8.424 9.45-18.066 0 0-25.825 6.517-13.49 20.878Z" fill="#6A6A6A"/><path d="M70.86 74.123s2.133 1.776-2.35 3.15c-8.524 2.61-35.48 3.397-42.967.104-2.692-1.183 2.356-2.825 3.944-3.17 1.656-.362 2.602-.295 2.602-.295-2.993-2.13-19.349 4.184-8.308 5.992 30.11 4.934 54.889-2.221 47.078-5.781ZM39.301 50.958s-13.71 3.29-4.855 4.485c3.74.506 11.193.391 18.136-.197 5.674-.483 11.372-1.511 11.372-1.511s-2.001.865-3.449 1.864c-13.923 3.7-40.82 1.979-33.077-1.806 6.549-3.198 11.873-2.835 11.873-2.835ZM63.902 64.85c14.153-7.432 7.61-14.574 3.041-13.612-1.119.236-1.618.44-1.618.44s.415-.658 1.21-.943c9.035-3.21 15.985 9.468-2.918 14.489 0 0 .22-.198.285-.375Z" fill="#9B9B9B"/><path d="M55.364 9s7.839 7.923-7.434 20.106c-12.248 9.773-2.793 15.346-.005 21.712-7.15-6.517-12.396-12.255-8.876-17.594C44.215 25.385 58.527 21.585 55.364 9Z" fill="#6A6A6A"/><path d="M40.693 84.987c13.586.879 34.448-.488 34.942-6.983 0 0-.95 2.462-11.228 4.418-11.596 2.205-25.897 1.947-34.38.534 0 0 1.737 1.452 10.666 2.03Z" fill="#9B9B9B"/></svg>
